web/assets/images/product/gluten.svg

<svg xmlns="http://www.w3.org/2000/svg" viewBox="0 0 16.6 25"><path d="M14.3 16.6c-3 0-5.5 2.5-5.5 5.5 0 .5.2 1 .6 1.3.3.3.8.6 1.3.6 3 0 5.5-2.5 5.5-5.5 0-.5-.2-1-.6-1.3-.3-.3-.7-.5-1.3-.6zm-3.6 6c-.1 0-.3-.1-.4-.2-.1-.1-.2-.2-.2-.4 0-2.3 1.9-4.1 4.1-4.1.1 0 .3 0 .4.2.1.1.2.2.2.4 0 2.3-1.8 4.1-4.1 4.1zm-1.9-8.3c0 .5.2 1 .6 1.3.3.3.8.6 1.3.6 3 0 5.5-2.5 5.5-5.5 0-.5-.2-1-.5-1.3-.3-.3-.8-.5-1.3-.6-3.1 0-5.6 2.5-5.6 5.5zm5.5-4.1c.1 0 .3 0 .4.2.1.1.2.2.2.4 0 2.3-1.9 4.1-4.1 4.1-.1 0-.3-.1-.4-.2-.1-.1-.2-.2-.2-.4 0-2.3 1.8-4.1 4.1-4.1zm-12 6.4c-.5 0-1 .2-1.3.6-.4.4-.6.8-.6 1.3 0 3 2.5 5.5 5.5 5.5.5 0 1-.2 1.3-.6.4-.4.6-.8.6-1.3 0-3-2.5-5.4-5.5-5.5zm4 5.9c-.1.1-.2.2-.4.2-2.3 0-4.1-1.9-4.1-4.1 0-.1.1-.3.2-.4 0-.1.1-.2.3-.2 2.3 0 4.1 1.9 4.1 4.1 0 .2 0 .3-.1.4zm-4-13.7c-.5 0-1 .2-1.3.6-.4.4-.6.8-.6 1.3 0 3 2.5 5.5 5.5 5.5.5 0 1-.2 1.3-.6.4-.4.6-.8.6-1.3 0-3-2.5-5.5-5.5-5.5zm4 5.9c-.1.1-.2.2-.4.2-2.3 0-4.1-1.9-4.1-4.1 0-.1.1-.3.2-.4.1-.1.2-.1.4-.2 2.3 0 4.1 1.9 4.1 4.1-.1.1-.1.3-.2.4zm4.9-9.1c0-1.5-.6-3-1.8-4.1-.7-.7-1.8-.7-2.6 0C5.7 2.6 5 4 5 5.6c0 1.5.6 3 1.8 4.1.3.3.8.5 1.3.5s.9-.2 1.3-.5c1.1-1.1 1.8-2.6 1.8-4.1zM7.7 8.7c-.8-.9-1.3-2-1.3-3.1s.5-2.3 1.4-3.1c0-.1.2-.1.3-.1.1 0 .3 0 .4.1.9.8 1.4 1.9 1.4 3.1s-.6 2.2-1.4 3.1c-.2.2-.6.2-.8 0z"/></svg>

<?xml version="1.0" encoding="utf-8"?>
<svg version="1.1" id="Capa_1" xmlns="http://www.w3.org/2000/svg" xmlns:xlink="http://www.w3.org/1999/xlink" x="0px" y="0px"
	 viewBox="0 0 16.6 25" style="enable-background:new 0 0 16.6 25;" xml:space="preserve">
<path d="M14.3,16.6L14.3,16.6c-3,0-5.5,2.5-5.5,5.5c0,0.5,0.2,1,0.6,1.3c0.3,0.3,0.8,0.6,1.3,0.6c3,0,5.5-2.5,5.5-5.5
	c0-0.5-0.2-1-0.6-1.3C15.3,16.9,14.9,16.7,14.3,16.6z M10.7,22.6c-0.1,0-0.3-0.1-0.4-0.2c-0.1-0.1-0.2-0.2-0.2-0.4
	c0-2.3,1.9-4.1,4.1-4.1c0.1,0,0.3,0,0.4,0.2c0.1,0.1,0.2,0.2,0.2,0.4C14.8,20.8,13,22.6,10.7,22.6z M8.8,14.3c0,0.5,0.2,1,0.6,1.3
	c0.3,0.3,0.8,0.6,1.3,0.6c3,0,5.5-2.5,5.5-5.5c0-0.5-0.2-1-0.5-1.3c-0.3-0.3-0.8-0.5-1.3-0.6l0,0C11.3,8.8,8.8,11.3,8.8,14.3z
	 M14.3,10.2c0.1,0,0.3,0,0.4,0.2c0.1,0.1,0.2,0.2,0.2,0.4c0,2.3-1.9,4.1-4.1,4.1c-0.1,0-0.3-0.1-0.4-0.2c-0.1-0.1-0.2-0.2-0.2-0.4
	C10.2,12,12,10.2,14.3,10.2z M2.3,16.6L2.3,16.6c-0.5,0-1,0.2-1.3,0.6c-0.4,0.4-0.6,0.8-0.6,1.3c0,3,2.5,5.5,5.5,5.5
	c0.5,0,1-0.2,1.3-0.6c0.4-0.4,0.6-0.8,0.6-1.3C7.8,19.1,5.3,16.7,2.3,16.6z M6.3,22.5c-0.1,0.1-0.2,0.2-0.4,0.2
	c-2.3,0-4.1-1.9-4.1-4.1c0-0.1,0.1-0.3,0.2-0.4C2,18.1,2.1,18,2.3,18c2.3,0,4.1,1.9,4.1,4.1C6.4,22.3,6.4,22.4,6.3,22.5z M2.3,8.8
	L2.3,8.8C1.8,8.8,1.3,9,1,9.4c-0.4,0.4-0.6,0.8-0.6,1.3c0,3,2.5,5.5,5.5,5.5c0.5,0,1-0.2,1.3-0.6c0.4-0.4,0.6-0.8,0.6-1.3
	C7.8,11.3,5.3,8.8,2.3,8.8z M6.3,14.7c-0.1,0.1-0.2,0.2-0.4,0.2c-2.3,0-4.1-1.9-4.1-4.1c0-0.1,0.1-0.3,0.2-0.4
	c0.1-0.1,0.2-0.1,0.4-0.2c2.3,0,4.1,1.9,4.1,4.1C6.4,14.4,6.4,14.6,6.3,14.7z M11.2,5.6c0-1.5-0.6-3-1.8-4.1c-0.7-0.7-1.8-0.7-2.6,0
	C5.7,2.6,5,4,5,5.6c0,1.5,0.6,3,1.8,4.1c0.3,0.3,0.8,0.5,1.3,0.5c0.5,0,0.9-0.2,1.3-0.5C10.5,8.6,11.2,7.1,11.2,5.6z M7.7,8.7
	C6.9,7.8,6.4,6.7,6.4,5.6s0.5-2.3,1.4-3.1C7.8,2.4,8,2.4,8.1,2.4c0.1,0,0.3,0,0.4,0.1c0.9,0.8,1.4,1.9,1.4,3.1S9.3,7.8,8.5,8.7
	C8.3,8.9,7.9,8.9,7.7,8.7z"/>
</svg>
